svg/format_float_none.svg

<svg xmlns="http://www.w3.org/2000/svg" viewBox="0 0 24 24"><path d="M3 7h6v6H3zm0-4h18v2H3zm18 8v2H11v-2zM3 15h14v2H3zm0 4h18v2H3z"/></svg>

<?xml version="1.0" encoding="UTF-8"?><!DOCTYPE svg PUBLIC "-//W3C//DTD SVG 1.1//EN" "http://www.w3.org/Graphics/SVG/1.1/DTD/svg11.dtd"><svg xmlns="http://www.w3.org/2000/svg" xmlns:xlink="http://www.w3.org/1999/xlink" version="1.1" id="mdi-format-float-none" width="24" height="24" viewBox="0 0 24 24"><path d="M3,7H9V13H3V7M3,3H21V5H3V3M21,11V13H11V11H21M3,15H17V17H3V15M3,19H21V21H3V19Z" /></svg>
